icons/actions/24/tools-media-optical-copy.svg

<?xml version="1.0"?>
<!-- Created with Inkscape (http://www.inkscape.org/) -->
<svg xmlns:dc="http://purl.org/dc/elements/1.1/" xmlns:cc="http://creativecommons.org/ns#" xmlns:rdf="http://www.w3.org/1999/02/22-rdf-syntax-ns#" xmlns:svg="http://www.w3.org/2000/svg" xmlns="http://www.w3.org/2000/svg" xmlns:sodipodi="http://sodipodi.sourceforge.net/DTD/sodipodi-0.dtd" xmlns:inkscape="http://www.inkscape.org/namespaces/inkscape" width="24" height="24" id="svg3869" version="1.1" inkscape:version="0.91 r13725" sodipodi:docname="tools-media-optical-copy.svg">
  <defs id="defs3871">
    <style type="text/css" id="current-color-scheme">
      .ColorScheme-Text {
        color:#4d4d4d;
      }
      .ColorScheme-Background {
        color:#eff0f1;
      }
      .ColorScheme-Highlight {
        color:#3daee9;
      }
      .ColorScheme-ViewText {
        color:#31363b;
      }
      .ColorScheme-ViewBackground {
        color:#fcfcfc;
      }
      .ColorScheme-ViewHover {
        color:#93cee9;
      }
      .ColorScheme-ViewFocus{
        color:#3daee9;
      }
      .ColorScheme-ButtonText {
        color:#31363b;
      }
      .ColorScheme-ButtonBackground {
        color:#eff0f1;
      }
      .ColorScheme-ButtonHover {
        color:#93cee9;
      }
      .ColorScheme-ButtonFocus{
        color:#3daee9;
      }
      </style>
    <linearGradient id="linearGradient4290-48">
      <stop id="stop4292-0" offset="0" style="stop-color:#a5a5a5;stop-opacity:1;"/>
      <stop id="stop4294-0" offset="1" style="stop-color:#f5f2f5;stop-opacity:1;"/>
    </linearGradient>
    <inkscape:perspective id="perspective4146-9" inkscape:persp3d-origin="12 : 8 : 1" inkscape:vp_z="24 : 12 : 1" inkscape:vp_y="0 : 1000 : 0" inkscape:vp_x="0 : 12 : 1" sodipodi:type="inkscape:persp3d"/>
    <inkscape:perspective id="perspective4146" inkscape:persp3d-origin="12 : 8 : 1" inkscape:vp_z="24 : 12 : 1" inkscape:vp_y="0 : 1000 : 0" inkscape:vp_x="0 : 12 : 1" sodipodi:type="inkscape:persp3d"/>
    <inkscape:perspective sodipodi:type="inkscape:persp3d" inkscape:vp_x="0 : 12 : 1" inkscape:vp_y="0 : 1000 : 0" inkscape:vp_z="24 : 12 : 1" inkscape:persp3d-origin="12 : 8 : 1" id="perspective4146-9-1"/>
    <inkscape:perspective sodipodi:type="inkscape:persp3d" inkscape:vp_x="0 : 12 : 1" inkscape:vp_y="0 : 1000 : 0" inkscape:vp_z="24 : 12 : 1" inkscape:persp3d-origin="12 : 8 : 1" id="perspective4146-96"/>
  </defs>
  <sodipodi:namedview id="base" pagecolor="#ffffff" bordercolor="#666666" borderopacity="1.0" inkscape:pageopacity="0.0" inkscape:pageshadow="2" inkscape:zoom="22.627416" inkscape:cx="5.4926209" inkscape:cy="10.264796" inkscape:document-units="px" inkscape:current-layer="layer1" showgrid="true" fit-margin-top="0" fit-margin-left="0" fit-margin-right="0" fit-margin-bottom="0" inkscape:window-width="1366" inkscape:window-height="709" inkscape:window-x="-4" inkscape:window-y="0" inkscape:window-maximized="1" inkscape:showpageshadow="false" inkscape:snap-bbox="true" inkscape:object-nodes="true">
    <inkscape:grid type="xygrid" id="grid4132"/>
    <sodipodi:guide position="4,18" orientation="18,0" id="guide4138"/>
    <sodipodi:guide position="5,3" orientation="0,18" id="guide4140"/>
    <sodipodi:guide position="20,2.0000174" orientation="-18,0" id="guide4142"/>
    <sodipodi:guide position="2,21" orientation="0,-18" id="guide4144"/>
    <sodipodi:guide position="3,19.000017" orientation="16,0" id="guide4146"/>
    <sodipodi:guide position="2,4" orientation="0,16" id="guide4148"/>
    <sodipodi:guide position="21,20" orientation="-16,0" id="guide4150"/>
    <sodipodi:guide position="2,20" orientation="0,-16" id="guide4152"/>
  </sodipodi:namedview>
  <metadata id="metadata3874">
    <rdf:RDF>
      <cc:Work rdf:about="">
        <dc:format>image/svg+xml</dc:format>
        <dc:type rdf:resource="http://purl.org/dc/dcmitype/StillImage"/>
        <dc:title/>
      </cc:Work>
    </rdf:RDF>
  </metadata>
  <g inkscape:label="Capa 1" inkscape:groupmode="layer" id="layer1" transform="translate(-326,-532.3622)">
    <g transform="translate(327,-497)" id="layer1-5" inkscape:label="Capa 1">
      <path id="rect4119" transform="translate(0,1030.3622)" d="m 11,3 c -4.432,0 -8,3.568 -8,8 0,4.432 3.568,8 8,8 0.692084,0 1.360349,-0.09605 2,-0.259766 l 0,-1.033203 C 12.366247,17.894565 11.696167,18 11,18 7.122,18 4,14.878 4,11 4,7.122 7.122,4 11,4 c 3.878,0 7,3.122 7,7 0,0.696167 -0.105435,1.366247 -0.292969,2 l 1.033203,0 C 18.903948,12.360349 19,11.692084 19,11 19,6.568 15.432,3 11,3 Z m 0,2 C 7.676004,5 5,7.676 5,11 l 3,0 C 8,9.338 9.3380018,8 11,8 l 0,-3 z m 0,4 c -1.1079987,0 -2,0.892 -2,2 0,1.108 0.8920013,2 2,2 1.107999,0 2,-0.892 2,-2 0,-1.108 -0.892001,-2 -2,-2 z m 0,1 c 0.553999,0 1,0.446 1,1 0,0.554 -0.446001,1 -1,1 -0.553999,0 -1,-0.446 -1,-1 0,-0.554 0.446001,-1 1,-1 z m 3,1 c 0,0.773297 -0.29821,1.469123 -0.775391,2 l 3.427735,0 C 16.872755,12.373894 17,11.703344 17,11 l -3,0 z m -1,2.224609 C 12.469123,13.70179 11.773296,14 11,14 l 0,3 c 0.703343,0 1.373894,-0.127245 2,-0.347656 l 0,-3.427735 z M 16.5,14 C 15.115,14 14,15.115 14,16.5 14,17.885 15.115,19 16.5,19 17.885,19 19,17.885 19,16.5 19,15.115 17.885,14 16.5,14 Z m 0,1 C 17.331,15 18,15.669 18,16.5 18,17.331 17.331,18 16.5,18 15.669,18 15,17.331 15,16.5 15,15.669 15.669,15 16.5,15 Z m 0,1 C 16.223,16 16,16.223 16,16.5 16,16.777 16.223,17 16.5,17 16.777,17 17,16.777 17,16.5 17,16.223 16.777,16 16.5,16 Z" style="opacity:1;fill:currentColor;fill-opacity:1;stroke:none" inkscape:connector-curvature="0" class="ColorScheme-Text"/>
    </g>
  </g>
</svg>

<svg xmlns="http://www.w3.org/2000/svg" viewBox="0 0 24 24">
  <defs id="defs3051">
    <style type="text/css" id="current-color-scheme">
      .ColorScheme-Text {
        color:#4d4d4d;
      }
      </style>
  </defs>
  <a transform="translate(1,1)">
 <path 
    style="fill:currentColor;fill-opacity:1;stroke:none" 
    d="M 11 3 C 6.568 3 3 6.568 3 11 C 3 15.432 6.568 19 11 19 C 11.692084 19 12.360349 18.903948 13 18.740234 L 13 17.707031 C 12.366247 17.894565 11.696167 18 11 18 C 7.122 18 4 14.878 4 11 C 4 7.122 7.122 4 11 4 C 14.878 4 18 7.122 18 11 C 18 11.696167 17.894565 12.366247 17.707031 13 L 18.740234 13 C 18.903948 12.360349 19 11.692084 19 11 C 19 6.568 15.432 3 11 3 z M 11 5 C 7.676004 5 5 7.676 5 11 L 8 11 C 8 9.338 9.3380018 8 11 8 L 11 5 z M 11 9 C 9.8920013 9 9 9.892 9 11 C 9 12.108 9.8920013 13 11 13 C 12.107999 13 13 12.108 13 11 C 13 9.892 12.107999 9 11 9 z M 11 10 C 11.553999 10 12 10.446 12 11 C 12 11.554 11.553999 12 11 12 C 10.446001 12 10 11.554 10 11 C 10 10.446 10.446001 10 11 10 z M 14 11 C 14 11.773297 13.70179 12.469123 13.224609 13 L 16.652344 13 C 16.872755 12.373894 17 11.703344 17 11 L 14 11 z M 13 13.224609 C 12.469123 13.70179 11.773296 14 11 14 L 11 17 C 11.703343 17 12.373894 16.872755 13 16.652344 L 13 13.224609 z M 16.5 14 C 15.115 14 14 15.115 14 16.5 C 14 17.885 15.115 19 16.5 19 C 17.885 19 19 17.885 19 16.5 C 19 15.115 17.885 14 16.5 14 z M 16.5 15 C 17.331 15 18 15.669 18 16.5 C 18 17.331 17.331 18 16.5 18 C 15.669 18 15 17.331 15 16.5 C 15 15.669 15.669 15 16.5 15 z M 16.5 16 C 16.223 16 16 16.223 16 16.5 C 16 16.777 16.223 17 16.5 17 C 16.777 17 17 16.777 17 16.5 C 17 16.223 16.777 16 16.5 16 z "
    class="ColorScheme-Text"
    />  
</a>
</svg>
